public/sec.svg

<svg fill="none" height="58" viewBox="0 0 49 58" width="49" xmlns="http://www.w3.org/2000/svg" xmlns:xlink="http://www.w3.org/1999/xlink"><linearGradient id="a" gradientUnits="userSpaceOnUse" x1="-2.38415" x2="60.7013" y1="12.5105" y2="31.4505"><stop offset=".00800497" stop-color="#38dbff"/><stop offset="1" stop-color="#243aff"/></linearGradient><path d="m48.1882 27.4247v-18.10983c-16.3473 3.01393-23.2916-8.636303-23.6706-9.2884326l-.0176-.0264374-.0617.105751c-.7314 1.233759-7.7374 12.143749-23.626454 9.209119v18.10983s-.8988823 21.7229 23.397354 29.5132l.2908.141.2908-.141c24.2962-7.7903 23.3974-29.5132 23.3974-29.5132zm-23.4767 21.3881-.2115.0881v-20.3658h-16.89367c-.02644-.5024-.01763-.7932-.01763-.7932v-12.9368c11.3418 2.0974 16.3473-5.6841 16.8584-6.56536l.0441-.07931v20.37467h16.8937c-.1322 3.2342-1.6832 15.4748-16.6734 20.2777z" fill="url(#a)"/></svg>

<svg width="49" height="58" viewBox="0 0 49 58" fill="none" xmlns="http://www.w3.org/2000/svg">
<path d="M48.1882 27.4247V9.31487C31.8409 12.3288 24.8966 0.678567 24.5176 0.0264374L24.5 0L24.4383 0.105751C23.7069 1.33951 16.7009 12.2495 0.811846 9.31487V27.4247C0.811846 27.4247 -0.0870363 49.1476 24.2092 56.9379L24.5 57.0789L24.7908 56.9379C49.087 49.1476 48.1882 27.4247 48.1882 27.4247ZM24.7115 48.8128L24.5 48.9009V28.5351H7.60633C7.57989 28.0327 7.5887 27.7419 7.5887 27.7419V14.8051C18.9305 16.9025 23.936 9.121 24.4471 8.23974L24.4912 8.16043V28.5351H41.3849C41.2527 31.7693 39.7017 44.0099 24.7115 48.8128Z" fill="url(#paint0_linear_98_928)"/>
<defs>
<linearGradient id="paint0_linear_98_928" x1="-2.38415" y1="12.5105" x2="60.7013" y2="31.4505" gradientUnits="userSpaceOnUse">
<stop offset="0.00800497" stop-color="#38DBFF"/>
<stop offset="1" stop-color="#243AFF"/>
</linearGradient>
</defs>
</svg>
